X: 1
T: Full Bloom
C: Steve Maranto
N: For Rose Berkowitz on her 85th Birthday
S: Message from Sharon Green on ECD list 2015-8-25
R: waltz
Z: 2015 John Chambers <jc:trillian.mit.edu>
M: 3/4
L: 1/8
K: F
"A1"[|\
"F"C3 F A2 | "C/F"G E3 C2 | "Bb/F"B,3 D EF | "F"F C3 A,2 |\
"Bb/F"B,3 D EF | "Dm"F D3 A,2 | "Am"C2 cA EF | "Eb"G2 "Gm/D"B2 "C"c2 |]
"A2"[|\
"F"c3 f a2 | "C/F"g e3 c2 | "Bb/f"B3 d ef | "F"f c3 A2 |\
"Bb/F"B3 d ef | "Dm"f d3 A2 | "Gm7/Bb"d2y "Am"c4 | "D"d6 |]
"B"[|\
"Am"e2 cA FE | "Bb"D6 | "Am"ac eG AF | "Bb"ED- D4 |\
"Am"(3c'ea (3ceA (3cEF | "Bb"E D2 C2 B, | "FM7"A,C EF Ac | "Gm7"cd B2 "C"G2 |]
"C"[|\
"Dm"A6 | "Am"c3 A EF | "Eb"G3 [AF] [G_E][AF] | "Gm"B6 |\
"Db"F3 [G_E] [F_D][G_E] | "Fm"_A3 [G=E] [FD][GE] |[1 "Bbm9"_A4 "Gdim"B2 | "C4-3"G6 :|\
["Final time" "Bbm9"_A2 "Gdim"B2 "C"G2 | "F"F6 |]
